apps/scalable/4kvideodownloader.svg

<svg xmlns="http://www.w3.org/2000/svg" style="isolation:isolate" width="256" height="256"><defs><filter id="a" width="270.648" height="254.338" x="-7.32" y="2.95" filterUnits="userSpaceOnUse"><feGaussianBlur xmlns="http://www.w3.org/2000/svg" in="SourceGraphic" stdDeviation="4.294"/><feOffset xmlns="http://www.w3.org/2000/svg" dy="4" result="pf_100_offsetBlur"/><feFlood xmlns="http://www.w3.org/2000/svg" flood-opacity=".4"/><feComposite xmlns="http://www.w3.org/2000/svg" in2="pf_100_offsetBlur" operator="in" result="pf_100_dropShadow"/><feBlend xmlns="http://www.w3.org/2000/svg" in="SourceGraphic" in2="pf_100_dropShadow"/></filter></defs><g filter="url(#a)"><linearGradient id="b" x1=".533" x2=".533" y1="1" gradientTransform="matrix(244.648 0 0 228.338 5.676 11.947)" gradientUnits="userSpaceOnUse"><stop offset="0%" stop-color="#8ac249"/><stop offset="100%" stop-color="#aae961"/></linearGradient><path fill="url(#b)" d="M165.685 11.947c74.055 0 84.639 10.557 84.639 84.544v59.251c0 73.986-10.584 84.543-84.639 84.543h-75.37c-74.055 0-84.639-10.557-84.639-84.543V96.491c0-73.987 10.584-84.544 84.639-84.544h75.37z"/></g><g opacity=".4"><linearGradient id="c" x1=".517" x2=".517" y2="1"><stop offset="0%" stop-color="#fff"/><stop offset="12.5%" stop-opacity=".098" stop-color="#fff"/><stop offset="92.5%" stop-opacity=".098"/><stop offset="100%" stop-opacity=".498"/></linearGradient><path fill="none" stroke="url(#c)" stroke-linecap="round" stroke-linejoin="round" stroke-width="4.077" d="M165.685 11.947c74.055 0 84.639 10.557 84.639 84.544v59.251c0 73.986-10.584 84.543-84.639 84.543h-75.37c-74.055 0-84.639-10.557-84.639-84.543V96.491c0-73.987 10.584-84.544 84.639-84.544h75.37z" vector-effect="non-scaling-stroke"/></g><path fill="#F9F9F9" d="M111.167 74.008c-3.396.096-6.888.654-10.314 1.878-14.648 5.155-25.761 20.156-29.043 38.794-9.631 2.412-17.954 11.131-20.84 23.816-4.008 17.978 4.428 36.729 18.728 41.794.234.072.378.138.612.186 1.968.912 4.338 1.524 6.54 1.524h3.187s6-5.929 6-12.001V98.016c0-6 5.815-12.001 5.815-12.001h17.977s-5.79 6.001-5.79 12.001v18.002h48.124V98.016c0-3 1.362-6 2.814-8.25-.822.186-1.596.444-2.436.75-2.742.96-5.202 2.37-7.501 4.314-7.878-13.339-20.509-21.212-33.915-20.816M93.736 92.016c-.912 1.83-1.686 3.912-1.686 6h6c0-2.088.75-4.17 1.662-6m60.186 0c-.912 1.83-1.686 3.912-1.686 6h6c0-2.088.75-4.17 1.662-6m5.815.564c-.822 1.71-1.5 3.492-1.5 5.436v71.983c0 6.12-5.977 12.001-5.977 12.001h16.478c3.702 0 7.008-1.428 9.913-3.75 11.629-6.937 18.001-23.648 14.437-39.73-2.646-11.881-10.129-20.414-18.914-23.438-.138-.396-.138-.726-.186-1.128-2.178-9.703-7.524-17.3-14.251-21.47m-79.627 11.533v6.001h6v-6.001m60.126 0v6.001h6v-6.001m-72.126 11.977v6.001h6v-6.001m60.126 0v6.001h6v-6.001m-60.125 6.001v30.002h48.124v-30.002m-60.125 6v6.001h6v-6.001m60.126 0v6.001h6v-6.001m-72.126 11.977v6.001h6v-6.001m60.126 0v6.001h6v-6.001m-72.126 12.001v6.001h6v-6.001m60.126 0v6.001h6v-6.001m-60.125 6.001v11.977c0 5.88-6.001 12.001-6.001 12.001h48.125s6-6.001 6-12.001v-11.977m-60.125 6v5.977h6v-5.977m60.126 0v5.977h6v-5.977m-73.836 11.977c-1.783 3.445-4.315 6.001-4.315 6.001h6.001s2.532-2.556 4.314-6.001m60.126 0c-1.783 3.445-4.315 6.001-4.315 6.001h6.001s2.532-2.556 4.314-6.001"/></svg>

<svg xmlns="http://www.w3.org/2000/svg" style="isolation:isolate" width="256" height="256" viewBox="0 0 256 256">
 <defs>
  <filter id="QugbkPSH2s7y1enr4BNn3JOG3DjC39Ne" width="270.648" height="254.338" x="-7.32" y="2.95" filterUnits="userSpaceOnUse">
   <feGaussianBlur xmlns="http://www.w3.org/2000/svg" in="SourceGraphic" stdDeviation="4.294"/>
   <feOffset xmlns="http://www.w3.org/2000/svg" dx="0" dy="4" result="pf_100_offsetBlur"/>
   <feFlood xmlns="http://www.w3.org/2000/svg" flood-opacity=".4"/>
   <feComposite xmlns="http://www.w3.org/2000/svg" in2="pf_100_offsetBlur" operator="in" result="pf_100_dropShadow"/>
   <feBlend xmlns="http://www.w3.org/2000/svg" in="SourceGraphic" in2="pf_100_dropShadow" mode="normal"/>
  </filter>
 </defs>
 <g filter="url(#QugbkPSH2s7y1enr4BNn3JOG3DjC39Ne)">
  <linearGradient id="_lgradient_6" x1=".533" x2=".533" y1="1" y2="0" gradientTransform="matrix(244.648,0,0,228.338,5.676,11.947)" gradientUnits="userSpaceOnUse">
   <stop offset="0%" style="stop-color:rgb(138,194,73)"/>
   <stop offset="100%" style="stop-color:rgb(170,233,97)"/>
  </linearGradient>
  <path fill="url(#_lgradient_6)" d="M 165.685 11.947 C 239.74 11.947 250.324 22.504 250.324 96.491 L 250.324 155.742 C 250.324 229.728 239.74 240.285 165.685 240.285 L 90.315 240.285 C 16.26 240.285 5.676 229.728 5.676 155.742 L 5.676 96.491 C 5.676 22.504 16.26 11.947 90.315 11.947 L 165.685 11.947 Z"/>
 </g>
 <g opacity=".4">
  <linearGradient id="_lgradient_7" x1=".517" x2=".517" y1="0" y2="1">
   <stop offset="0%" style="stop-color:rgb(255,255,255)"/>
   <stop offset="12.5%" stop-opacity=".098" style="stop-color:rgb(255,255,255)"/>
   <stop offset="92.5%" stop-opacity=".098" style="stop-color:rgb(0,0,0)"/>
   <stop offset="100%" stop-opacity=".498" style="stop-color:rgb(0,0,0)"/>
  </linearGradient>
  <path fill="none" stroke="url(#_lgradient_7)" stroke-linecap="round" stroke-linejoin="round" stroke-width="4.077" d="M 165.685 11.947 C 239.74 11.947 250.324 22.504 250.324 96.491 L 250.324 155.742 C 250.324 229.728 239.74 240.285 165.685 240.285 L 90.315 240.285 C 16.26 240.285 5.676 229.728 5.676 155.742 L 5.676 96.491 C 5.676 22.504 16.26 11.947 90.315 11.947 L 165.685 11.947 Z" vector-effect="non-scaling-stroke"/>
 </g>
 <path fill="#F9F9F9" d="M 111.167 74.008 C 107.771 74.104 104.279 74.662 100.853 75.886 C 86.205 81.041 75.092 96.042 71.81 114.68 C 62.179 117.092 53.856 125.811 50.97 138.496 C 46.962 156.474 55.398 175.225 69.698 180.29 C 69.932 180.362 70.076 180.428 70.31 180.476 C 72.278 181.388 74.648 182 76.85 182 L 80.037 182 C 80.037 182 86.037 176.071 86.037 169.999 L 86.037 98.016 C 86.037 92.016 91.852 86.015 91.852 86.015 L 109.829 86.015 C 109.829 86.015 104.039 92.016 104.039 98.016 L 104.039 116.018 L 152.163 116.018 L 152.163 98.016 C 152.163 95.016 153.525 92.016 154.977 89.766 C 154.155 89.952 153.381 90.21 152.541 90.516 C 149.799 91.476 147.339 92.886 145.04 94.83 C 137.162 81.491 124.531 73.618 111.125 74.014 M 93.736 92.016 C 92.824 93.846 92.05 95.928 92.05 98.016 L 98.05 98.016 C 98.05 95.928 98.8 93.846 99.712 92.016 M 159.898 92.016 C 158.986 93.846 158.212 95.928 158.212 98.016 L 164.212 98.016 C 164.212 95.928 164.962 93.846 165.874 92.016 M 171.689 92.58 C 170.867 94.29 170.189 96.072 170.189 98.016 L 170.189 169.999 C 170.189 176.119 164.212 182 164.212 182 L 180.69 182 C 184.392 182 187.698 180.572 190.603 178.25 C 202.232 171.313 208.604 154.602 205.04 138.52 C 202.394 126.639 194.911 118.106 186.126 115.082 C 185.988 114.686 185.988 114.356 185.94 113.954 C 183.762 104.251 178.416 96.654 171.689 92.484 M 92.062 104.017 L 92.062 110.018 L 98.062 110.018 L 98.062 104.017 M 158.188 104.017 L 158.188 110.018 L 164.188 110.018 L 164.188 104.017 M 92.062 115.994 L 92.062 121.995 L 98.062 121.995 L 98.062 115.994 M 158.188 115.994 L 158.188 121.995 L 164.188 121.995 L 164.188 115.994 M 104.063 121.995 L 104.063 151.997 L 152.187 151.997 L 152.187 121.995 M 92.062 127.995 L 92.062 133.996 L 98.062 133.996 L 98.062 127.995 M 158.188 127.995 L 158.188 133.996 L 164.188 133.996 L 164.188 127.995 M 92.062 139.972 L 92.062 145.973 L 98.062 145.973 L 98.062 139.972 M 158.188 139.972 L 158.188 145.973 L 164.188 145.973 L 164.188 139.972 M 92.062 151.973 L 92.062 157.974 L 98.062 157.974 L 98.062 151.973 M 158.188 151.973 L 158.188 157.974 L 164.188 157.974 L 164.188 151.973 M 104.063 157.974 L 104.063 169.951 C 104.063 175.831 98.062 181.952 98.062 181.952 L 146.187 181.952 C 146.187 181.952 152.187 175.951 152.187 169.951 L 152.187 157.974 M 92.062 163.974 L 92.062 169.951 L 98.062 169.951 L 98.062 163.974 M 158.188 163.974 L 158.188 169.951 L 164.188 169.951 L 164.188 163.974 M 90.352 175.951 C 88.569 179.396 86.037 181.952 86.037 181.952 L 92.038 181.952 C 92.038 181.952 94.57 179.396 96.352 175.951 M 156.478 175.951 C 154.695 179.396 152.163 181.952 152.163 181.952 L 158.164 181.952 C 158.164 181.952 160.696 179.396 162.478 175.951"/>
</svg>
